X:1
T:Mompou - Variations on a Theme by Chopin (X Evocation)
T:Mompou
%%score { ( 1 3 ) | ( 2 4 ) }
L:1/8
M:4/4
K:A
V:1 treble nm="Piano" snm="Pno."
V:3 treble 
V:2 bass 
V:4 bass 
V:1
!mf! z[Q:1/4=90]"^Cantabile molto espressivo"!<(! (CcB!<)! | d c3) z ((CB)A | %2
 [Ac] [GB]3)!>(! z2 cB!>)! |!mp! A4 z!mf! AGF | A G3!p! z2 [Ac][GB] | [Bd] [Ac]3!<(! z F- F2!<)! | %6
!mf! [ce] [Bd]3!>(! z2 ed!>)! |!mp! c3 C [FA][EG][DF][C^E] | G F3 z2"^rit..."[Q:1/4=72] ^E2 | %9
 [A,F]8 |[Q:1/4=90]"^Tranquillo""_molto legato" E3 E FEAB | c4 e4 | d2 c2 B2 cA | E6 E2 | %14
!<(! F3 F =GFBc!<)! |!f! d2!>(! c2 B2 c2!>)! |!mf! A2 (G/A/B/A/) c3 B |[M:2/4]!mp! B4 | %18
[M:4/4] E3 E FEAB | c4 e4 | d2 c2 B2 cA | E6 E2 |!<(! F3 F =GFBc!<)! | d2!>(! c2 B2 c2!>)! | %24
!mp! A4 (e3 d) | c4!f! c4- | c4!mf! !fermata!z (Cc)B | d c3 z (CB)A | ([Ac] [GB]3) z2 cB | %29
 A4 z AGF | A G3 z2 [Ac][GB] | [Bd] [Ac]3 z!<(! F- F2!<)! | ([ce]!mp! [Bd]3) z2!>(! ed!>)! | %33
 c3 C [FA][EG][DF][C^E] | G F3 z2[Q:1/4=72]"^rit." ^E2 | [A,F]8 |] %36
V:2
 z4 | C,3 (D, C,A,G,F,) | !arpeggio![^D,B,^E]4 z C,(A,G, | F,6-) F,A, | (^D,3 F, ^E,4) | %5
 A,3 G, F,E,G,^A, | B,4 B,=A,CB, | A,4 CB,A,G, | F,4 z4 |!p! (D, C,3-) C,4 | %10
!pp! [E,G,]3!mp! [E,G,] [E,A,][E,G,][E,F,][E,G,] | (E,2 =G,2 F,4) | F,2 ^A,2 B,2 B,C | %13
 (A,3 G, F,E,A,G,) | A,3 [D,A,] [C,B,][C,^A,][F,G,][F,A,] | B,2 =A,2 A,2 B,2 | A,2 B,A, A,4 | %17
[M:2/4] G,4 |[M:4/4] [E,G,]3 [E,G,] [E,A,][E,G,][E,F,][E,G,] | (E,2 =G,2 F,4) | F,2 ^A,2 B,2 B,C | %21
 (A,3 G, F,E,A,G,) | A,3 [D,A,] [C,B,][C,^A,][F,G,][F,A,] |!mf! F,2 F,2 F,2 G,2 | %24
 E,2 ^D,/E,/F,/E,/ C2 B,2 | A,4 A,2 G,2- | G,4 z z z2 | C,3 (D, C,A,G,F,) | %28
 !arpeggio![^D,B,^E]4 z C,A,G, | F,6- F,A, | (^D,3 F, ^E,4) | A,3 G, F,E,G,^A, | B,4 B,=A,CB, | %33
 A,4 CB,A,G, | F,4 z4 | (D, C,3-) C,4 |] %36
V:3
 x4 | F4 x2 C2 | z x5 ^E2 | D4 C2 D2 | ^B,4 C4 | x6 [df][ce] | F6 F2 | F3 z x4 | B,4 x2 A,G, | x8 | %10
 D3 D DDDD | C4 C4 | D2 E2 F2 F2 | D6 D2 | D3 D EEEE | F2 E2 F2 G2 | C2 E2 ([^DG]2 F2) | %17
[M:2/4] E4 |[M:4/4] D3 D DDDD | C4 C4 | D2 E2 F2 F2 | D6 D2 | D3 D EEEE | D2 E2 F2 E2 | C4 F2 G2 | %25
 E4 ^D2 ^E2- | E4 x2 C2 | F4 x2 C2 | z x5 ^E2 | D4 C2 D2 | ^B,4 C4 | x6 [df][ce] | F6 F2 | %33
 F3 z x4 | B,4 x2 A,G, | x8 |] %36
V:4
 x4 | [F,,A,]4 x4 | x5 C,3 | (C,3 B,, A,,2) B,,2 | C,4 z (B,,A,,G,,) | [F,,C,]4 x2 D,C, | %6
 B,,2 z B,,- B,,2 x2 | C,2 C,E, D,2 B,,F,, | D,4- D,D,C,B,, | F,,8 | x8 | A,,4 ^A,,4 | %12
 B,,2 C,2 D,2 ^D,2 | E,4 x4 | D,3 x5 | B,,2 C,2 ^D,2 ^E,2 | F,2 C,2 B,,4 |[M:2/4] E,4 |[M:4/4] x8 | %19
 A,,4 ^A,,4 | B,,2 C,2 D,2 ^D,2 | E,4 x4 | D,3 x5 | B,,2 C,2 D,2 E,2 | A,,4 E,4 | %25
 z2 ^B,,/C,/D,/C,/- C,4- | C,4 z4 | [F,,A,]4 x4 | x5 C,3 | (C,3 B,, A,,2) B,,2 | %30
 C,4 z (B,,A,,G,,) | [F,,C,]4 x2 D,C, | B,,2 z B,,- B,,2 x2 | C,2 C,E, D,2 B,,F,, | %34
 D,4- D,D,C,B,, | F,,8 |] %36

